X:1
T:Title
%%score { ( 1 3 ) | ( 2 4 ) }
L:1/8
M:4/4
K:E
V:1 treble nm="Grand Piano"
V:3 treble 
V:2 bass 
V:4 bass 
V:1
 z4 z[Q:1/4=100] E G>G |[M:3/4] G3 [DF] E>E | E2 z G [GB]>[GB] | [GB]3 [GB] [Ac]>[Ac] | %4
 [GB]2 z2 z z/ F/ | [B,EG]3 [G,E] [A,DF]>[G,E] |[M:3/8] [G,E]2 z | [B,GB][Ge]>[Ge] | %8
[M:3/4] [Ge]3 [EGB] [EAc]>[EAc] | [GB]2 z [GB] [GB]>[GB] | [Ac]3 [GB] [B,EG]>[G,E] | z2 z2 E2 | %12
 G3 E [DF]>E |[M:3/8] E2 z |[M:7/8] e3 c e3 |[M:13/16] e/-e/-e-<ec[GB]>[Ac]B/ | %16
[M:3/4] G3 E [DF]>[DF] | [EG]2 B2 z2 |[M:7/8] e3 c e3 |[M:13/16] e/-e/-e-<ec[GB]>[Ac]B/ | %20
[M:3/4] G3 E [DF]>E |[M:3/8] E3 |] %22
V:2
 z4 z [E,G,] [E,B,E]>[E,B,E] |[M:3/4] [E,B,E]3 [B,,A,] [E,G,B,]>[E,G,B,] | %2
 [E,G,B,]2 z [E,B,E] [E,E]>[E,E] | [E,E]3 [E,E] [E,E]>[E,E] | [E,E]2 z2 G,>A, | E,3 E, B,,>E, | %6
[M:3/8] E,2 z | E,[E,B,]>[E,B,] |[M:3/4] [E,B,]3 E, A,,>A,, | [E,E]2 z [E,E] [E,E]>[E,E] | %10
 [E,E]3 [E,E] E,>E, | B,,2 z2 z z/ A,/ | [E,B,E]3 [E,G,] [B,,A,]>[E,G,] |[M:3/8] [E,G,]2 z | %14
[M:7/8][K:treble] [A,CA]3 [A,EA] [A,CA]3 | %15
[M:13/16] [A,CA]/-[A,CA]/-[A,CA]-<[A,CA][A,EA][K:bass][E,E]3/2 z/ G/ | %16
[M:3/4] [E,B,E]3 [E,G,] [B,,B,]>[B,,B,] | z2[K:treble] G2 z2 |[M:7/8] [A,CA]3 [A,EA] [A,CA]3 | %19
[M:13/16] [A,CA]/-[A,CA]/-[A,CA]-<[A,CA][A,EA][K:bass][E,E]3/2 z/ G/ | %20
[M:3/4] [E,B,E]3 [E,G,] [B,,A,]>[E,G,] |[M:3/8] [E,G,]3 |] %22
V:3
 x8 |[M:3/4] x6 | x6 | x6 | z2 z2 E2 | x6 |[M:3/8] x3 | x3 |[M:3/4] x6 | x6 | x6 | %11
 [B,DF]2 z2 G,>F | x6 |[M:3/8] x3 |[M:7/8] x7 |[M:13/16] x13/2 |[M:3/4] x6 | x6 |[M:7/8] x7 | %19
[M:13/16] x13/2 |[M:3/4] x6 |[M:3/8] x3 |] %22
V:4
 x8 |[M:3/4] x6 | x6 | x6 | z2 z2 E,2 | x6 |[M:3/8] x3 | x3 |[M:3/4] x6 | x6 | x6 | z2 z2 E,2 | %12
 x6 |[M:3/8] x3 |[M:7/8][K:treble] x7 |[M:13/16] z/ z/ z/ z/ z/ z/ z/ z/[K:bass] z/ z [E,E] | %16
[M:3/4] x6 | [E,B,]4[K:treble] z2 |[M:7/8] x7 | %19
[M:13/16] z/ z/ z/ z/ z/ z/ z/ z/[K:bass] z/ z [E,E] |[M:3/4] x6 |[M:3/8] x3 |] %22

